X:452
T:Song of the International Brigades
Z:Jack Campin, http://www.campin.me.uk/
F:Jack Campin's Nine-Note Tunebook
% last edit 03-02-2013
C:Espinosa/Palacio
B:Requena Gallego: Canciones de las Brigadas Internacionales
M:C
L:1/8
Q:1/4=120
K:F
P:Verse
C>C|F2  F2  F>F ED | C4  F2 \
F>G|G2  G2  G>G AB | c4- cz
B>c|d2  d>d dc  Bd |(c4  F2)\
G>A|B2  B>A GD  EF | G4- Gz
B>c|d2  d>d dc  Bd |(c4  F2)\
G>A|B2  B>A GC  GA | F4- Fz
C>D|C2  G>G GG  AG | F4  C2 \
F>E|D2  D>E FE  FA | G4- Gz||
P:Chorus
B>c|d>d dd (dc) B>d|(c4  F2)\
G>A|B2  B>A GD  EF | G4- Gz
B>c|d>d dd (dc) B>d|(c4  F2)\
G>A|B2  B>A GC  GA | F4- Fz|]


% == Basque songs ===========================================================

